img/icons/page/page-landscape.svg

<svg viewBox="0 0 16 16" xmlns="http://www.w3.org/2000/svg"><path d="m6 5c0.233 0 0.442 0.134 0.525 0.338l2.44 5.95c0.111 0.271-0.0344 0.574-0.324 0.678-0.29 0.104-0.615-0.0321-0.726-0.303l-0.665-1.66h-2.49l-0.665 1.66c-0.111 0.271-0.436 0.406-0.726 0.303-0.29-0.104-0.435-0.407-0.324-0.678l2.44-5.95c0.0833-0.203 0.292-0.338 0.525-0.338zm-1e-5 1.88 0.847 2.12h-1.69l0.847-2.12z" clip-rule="evenodd" fill="#000" fill-rule="evenodd"/><path d="m14.4 2.33c-0.642-0.327-1.48-0.327-3.16-0.327h-6.4c-1.68 0-2.52 0-3.16 0.327-0.564 0.288-1.02 0.747-1.31 1.31-0.327 0.642-0.327 1.48-0.327 3.16v2.4c0 1.68 0 2.52 0.327 3.16 0.288 0.564 0.747 1.02 1.31 1.31 0.642 0.327 1.48 0.327 3.16 0.327h6.37c0.489 0 0.734 0 0.964-0.0552 0.204-0.049 0.399-0.13 0.578-0.24 0.202-0.124 0.375-0.297 0.721-0.642l1.63-1.63c0.346-0.346 0.519-0.519 0.643-0.721 0.11-0.179 0.19-0.374 0.239-0.578 0.0553-0.23 0.0553-0.475 0.0553-0.964v-2.37c0-1.68 0-2.52-0.327-3.16-0.288-0.564-0.746-1.02-1.31-1.31zm-13.4 4.47v2.4c0 0.857 7.8e-4 1.44 0.0376 1.89 0.0358 0.438 0.101 0.663 0.18 0.819 0.192 0.376 0.498 0.682 0.874 0.874 0.156 0.0796 0.381 0.145 0.819 0.18 0.45 0.0368 1.03 0.0375 1.89 0.0375h6.2v-3.5c0-0.276 0.224-0.5 0.5-0.5h3.5v-2.2c0-0.857-8e-4 -1.44-0.0376-1.89-0.0358-0.438-0.101-0.663-0.18-0.819-0.192-0.376-0.498-0.682-0.874-0.874-0.156-0.0797-0.381-0.145-0.819-0.18-0.45-0.0368-1.03-0.0376-1.89-0.0376h-6.4c-0.857 0-1.44 7.8e-4 -1.89 0.0376-0.438 0.0358-0.663 0.101-0.819 0.18-0.376 0.192-0.682 0.498-0.874 0.874-0.0797 0.156-0.145 0.381-0.18 0.819-0.0368 0.45-0.0376 1.03-0.0376 1.89zm11.2 6.05c-0.0613 0.0375-0.126 0.0683-0.194 0.0919v-2.94h2.94c-0.0235 0.0678-0.0543 0.133-0.0919 0.194-0.0474 0.0775-0.117 0.156-0.497 0.536l-1.63 1.63c-0.38 0.38-0.459 0.45-0.536 0.497z" clip-rule="evenodd" fill="#000" fill-rule="evenodd"/></svg>

<svg xmlns="http://www.w3.org/2000/svg" viewBox="0 0 16 16" fill="none">
  <path fill="#fff" fill-rule="evenodd"
    d="M6 5c.233 0 .442.134.525.338l2.438 5.95c.11.27-.035.574-.325.678-.29.103-.615-.033-.726-.303L7.247 10H4.753l-.665 1.663c-.11.27-.436.406-.726.303-.29-.104-.436-.408-.325-.678l2.438-5.95A.563.563 0 0 1 6 5Zm0 1.885L6.847 9H5.153L6 6.885Z"
    clip-rule="evenodd" />
  <path fill="#fff" fill-rule="evenodd"
    d="M14.362 2.327C13.72 2 12.88 2 11.2 2H4.8c-1.68 0-2.52 0-3.162.327A3 3 0 0 0 .327 3.638C0 4.28 0 5.12 0 6.8v2.4c0 1.68 0 2.52.327 3.162a3 3 0 0 0 1.311 1.311C2.28 14 3.12 14 4.8 14h6.375c.489 0 .733 0 .963-.055a2 2 0 0 0 .579-.24c.201-.123.374-.296.72-.642l1.626-1.626c.346-.345.519-.518.642-.72a2 2 0 0 0 .24-.578c.055-.23.055-.475.055-.964V6.8c0-1.68 0-2.52-.327-3.162a3 3 0 0 0-1.311-1.31ZM1 6.8v2.4c0 .857 0 1.44.038 1.89.035.438.1.662.18.818a2 2 0 0 0 .874.874c.156.08.38.145.819.18C3.361 13 3.943 13 4.8 13H11V9.5a.5.5 0 0 1 .5-.5H15V6.8c0-.856 0-1.439-.038-1.889-.035-.438-.1-.662-.18-.819a2 2 0 0 0-.874-.874c-.156-.08-.38-.144-.819-.18C12.639 3 12.057 3 11.2 3H4.8c-.857 0-1.439.001-1.889.038-.438.036-.663.1-.819.18a2 2 0 0 0-.874.874c-.08.157-.145.38-.18.82C1 5.361 1 5.943 1 6.8Zm11.194 6.053a1.008 1.008 0 0 1-.194.092V10h2.944a.993.993 0 0 1-.091.194c-.048.078-.118.157-.497.536l-1.626 1.626c-.38.38-.459.45-.536.497Z"
    clip-rule="evenodd" />
</svg>
